X: 1
T: Jump Josie   [Eb]
C:
R: waltz
Z: 2014 John Chambers <jc:trillian.mit.edu>
M: 3/4
L: 1/8
Q: "slow"
K: Eb
G2 |\
"Eb"B4G2 | B4G2 | FE-E4 | z4E2 | "Ab"C4D2 | E4C2 | "Eb"B,6 | "(Bb7"z4B,2 |\
"Eb"E4B,2 | E4F2 | GB-B4 | z2E2F2 | "Eb"G6 | "Bb7"F6 | "Eb"E6- | E2z4 |]
Q: "faster"
M: C
[|\
"Eb"E2 EE EE EE | G2 F2G2 B2 | "Eb"E2 EE EE EE | "Fm"F2 E2 "Bb7"C2 B2 |\
"Eb"E2 EE EE EE | G2 F2 G2 B2 | "Bb7"B3 B G2 F2 | "Eb"E8 |]
